src/pos-icons/cash-usd.svg

<svg height="24" viewBox="0 0 24 24" width="24" xmlns="http://www.w3.org/2000/svg"><path d="m20 4h-16c-1.11 0-2 .89-2 2v12c0 1.11.9 2 2 2h16c1.11 0 2-.89 2-2v-12c0-1.11-.9-2-2-2m-5 6h-4v1h3c.55 0 1 .45 1 1v3c0 .55-.45 1-1 1h-1v1h-2v-1h-2v-2h4v-1h-3c-.55 0-1-.45-1-1v-3c0-.55.45-1 1-1h1v-1h2v1h2z"/></svg>

<?xml version="1.0" encoding="UTF-8"?><!DOCTYPE svg PUBLIC "-//W3C//DTD SVG 1.1//EN" "http://www.w3.org/Graphics/SVG/1.1/DTD/svg11.dtd"><svg xmlns="http://www.w3.org/2000/svg" xmlns:xlink="http://www.w3.org/1999/xlink" version="1.1" id="mdi-cash-usd" width="24" height="24" viewBox="0 0 24 24"><path d="M20 4H4C2.89 4 2 4.89 2 6V18C2 19.11 2.9 20 4 20H20C21.11 20 22 19.11 22 18V6C22 4.89 21.1 4 20 4M15 10H11V11H14C14.55 11 15 11.45 15 12V15C15 15.55 14.55 16 14 16H13V17H11V16H9V14H13V13H10C9.45 13 9 12.55 9 12V9C9 8.45 9.45 8 10 8H11V7H13V8H15V10Z" /></svg>
